src/assets/twitter.svg

<?xml version="1.0" encoding="UTF-8"?>
<svg width="33px" height="32px" viewBox="0 0 33 32" version="1.1" xmlns="http://www.w3.org/2000/svg" xmlns:xlink="http://www.w3.org/1999/xlink">
    <!-- Generator: Sketch 54.1 (76490) - https://sketchapp.com -->
    <title>icons/white/twitter</title>
    <desc>Created with Sketch.</desc>
    <g id="icons/white/twitter" stroke="none" stroke-width="1" fill="none" fill-rule="evenodd">
        <path d="M22.3626,12.7371 C22.3686,12.8781 22.3726,13.0191 22.3726,13.1621 C22.3726,17.4991 19.0706,22.5011 13.0326,22.5011 C11.1786,22.5011 9.4536,21.9581 8.0006,21.0271 C8.2576,21.0571 8.5186,21.0721 8.7836,21.0721 C10.3216,21.0721 11.7366,20.5481 12.8606,19.6671 C11.4236,19.6411 10.2116,18.6921 9.7936,17.3881 C9.9946,17.4261 10.1996,17.4461 10.4116,17.4461 C10.7106,17.4461 11.0006,17.4061 11.2766,17.3311 C9.7746,17.0301 8.6436,15.7031 8.6436,14.1131 L8.6436,14.0711 C9.0856,14.3171 9.5926,14.4651 10.1306,14.4821 C9.2496,13.8931 8.6696,12.8881 8.6696,11.7501 C8.6696,11.1481 8.8316,10.5841 9.1146,10.0991 C10.7336,12.0851 13.1526,13.3921 15.8806,13.5291 C15.8246,13.2891 15.7956,13.0381 15.7956,12.7811 C15.7956,10.9681 17.2656,9.4981 19.0776,9.4981 C20.0226,9.4981 20.8756,9.8971 21.4736,10.5351 C22.2216,10.3881 22.9246,10.1151 23.5586,9.7391 C23.3136,10.5051 22.7926,11.1481 22.1156,11.5551 C22.7796,11.4751 23.4116,11.2991 24.0006,11.0381 C23.5606,11.6961 23.0036,12.2741 22.3626,12.7371 M16.0006,0.0001 C7.1636,0.0001 0.0006,7.1631 0.0006,16.0001 C0.0006,24.8361 7.1636,32.0001 16.0006,32.0001 C24.8376,32.0001 32.0006,24.8361 32.0006,16.0001 C32.0006,7.1631 24.8376,0.0001 16.0006,0.0001" id="Fill-184" fill="#FFFFFF"></path>
    </g>
</svg>

<svg width="33" height="32" xmlns="http://www.w3.org/2000/svg">
  <path d="M22.363 12.737c.006.141.01.282.01.425 0 4.337-3.302 9.34-9.34 9.34A9.294 9.294 0 0 1 8 21.026c.257.03.518.045.783.045a6.584 6.584 0 0 0 4.077-1.405 3.285 3.285 0 0 1-3.067-2.279 3.312 3.312 0 0 0 1.483-.057 3.283 3.283 0 0 1-2.633-3.218v-.042c.442.246.949.394 1.487.411A3.282 3.282 0 0 1 9.115 10.1a9.32 9.32 0 0 0 6.766 3.43 3.283 3.283 0 0 1 5.593-2.994 6.568 6.568 0 0 0 2.085-.796 3.299 3.299 0 0 1-1.443 1.816A6.587 6.587 0 0 0 24 11.038a6.682 6.682 0 0 1-1.638 1.7M16 0C7.164 0 0 7.163 0 16c0 8.836 7.163 16 16 16s16-7.164 16-16c0-8.837-7.163-16-16-16" fill="#FFF" fill-rule="evenodd"/>
</svg>
